round/svg/4k.svg

<svg xmlns="http://www.w3.org/2000/svg" width="24" height="24"><path d="M19 3H5c-1.1 0-2 .9-2 2v14a2 2 0 0 0 2 2h14c1.1 0 2-.9 2-2V5a2 2 0 0 0-2-2zm-7 9.76c0 .41-.34.75-.75.75H11v.74c0 .41-.34.75-.75.75s-.75-.34-.75-.75v-.75h-2c-.55 0-1-.45-1-1V9.75c0-.41.34-.75.75-.75s.75.34.75.75V12h1.5V9.75c0-.41.34-.75.75-.75s.75.34.75.75V12h.25c.41 0 .75.34.75.75v.01zm5.47 1.14c.22.33.13.77-.2.98a.702.702 0 0 1-.98-.2L14.5 12v2.24c0 .41-.34.75-.75.75a.74.74 0 0 1-.75-.74v-4.5c0-.41.34-.75.75-.75s.75.34.75.75v2.24l1.79-2.68a.71.71 0 0 1 .98-.2c.33.22.41.66.2.98L16.2 12l1.27 1.9z" fill="currentColor"/></svg>

<?xml version="1.0" encoding="utf-8"?>
<!-- Generator: Adobe Illustrator 19.1.0, SVG Export Plug-In . SVG Version: 6.00 Build 0)  -->
<svg version="1.1" xmlns="http://www.w3.org/2000/svg" xmlns:xlink="http://www.w3.org/1999/xlink" x="0px" y="0px" width="24px"
	 height="24px" viewBox="0 0 24 24" enable-background="new 0 0 24 24" xml:space="preserve">
<g id="Bounding_Boxes" display="none">
	<path display="inline" fill="none" d="M0,0h24v24H0V0z"/>
</g>
<g id="Rounded" fill="currentColor">
	<path d="M19,3H5C3.9,3,3,3.9,3,5v14c0,1.1,0.89,2,2,2h14c1.1,0,2-0.9,2-2V5C21,3.9,20.11,3,19,3z M12,12.76
		c0,0.41-0.34,0.75-0.75,0.75H11v0.74c0,0.41-0.34,0.75-0.75,0.75c-0.41,0-0.75-0.34-0.75-0.75V13.5h-2c-0.55,0-1-0.45-1-1V9.75
		C6.5,9.34,6.84,9,7.25,9C7.66,9,8,9.34,8,9.75V12h1.5V9.75C9.5,9.34,9.84,9,10.25,9C10.66,9,11,9.34,11,9.75V12h0.25
		c0.41,0,0.75,0.34,0.75,0.75V12.76z M17.47,13.9c0.22,0.33,0.13,0.77-0.2,0.98C17.15,14.96,17.01,15,16.88,15
		c-0.23,0-0.45-0.11-0.59-0.32l-1.79-2.68v2.24c0,0.41-0.34,0.75-0.75,0.75C13.34,15,13,14.66,13,14.25v-4.5
		C13,9.34,13.34,9,13.75,9c0.41,0,0.75,0.34,0.75,0.75v2.24l1.79-2.68c0.22-0.33,0.66-0.41,0.98-0.2c0.33,0.22,0.41,0.66,0.2,0.98
		L16.2,12L17.47,13.9z"/>
</g>
</svg>
